X:150
T:The Assembly
S:American Veteran Fifer (Camp Duty #4)
M:2/4
L:1/16
Q:1/8=180
K:G 
%%MIDI program 72
%%MIDI transpose 8
%%MIDI ratio 3 1
|: dBGB e2e2 | dBGB AFD2 | dBGB efge | dBGB A4 :|
|: ABcA Bcd2 | efge d2d2 | gfge dBGB | cAFA G4 :|


